X: 178
T: No_9_On_the_Bank_of_a_Stream.krn
%%abc-version 2.0
%%abcx-abcm2ps-target-version 5.9.1 (29 Sep 2008)
%%abc-creator hum2abc beta
%%abcx-conversion-date 2020/08/10 18:54:57
%%gracespace 0 6 6
%%humdrum-veritas 3917743768
%%humdrum-veritas-data 552591060
%%linebreak <none>
%%barnumbers 0
L: 1/8
M: 2/4
%%staves {1 2}
V: 1 clef=bass
V: 2 clef=bass
K: Bb
[V:1] D, [I:setbarnb 1]| 
[V:2] z | 
[V:1] D,3D | 
[V:2] G,,G,, G,,G,, | 
[V:1] D3D | 
[V:2] G,,G,, G,,G,, | 
[V:1] D2D2 ||  
[V:2] z4 ||  
[V:1] [M:3/4]DD D>D DC ||  
[V:2] [M:3/4]z6 ||  
[V:1] [M:2/4]B,4 | 
[V:2] [M:2/4]z4 | 
[V:1] B,4 | 
[V:2] z4 | 
[V:1] C3B, ||  
[V:2] z4 ||  
[V:1] [M:3/4]C4CB, ||  
[V:2] [M:3/4]z6 ||  
[V:1] [M:2/4]G,4 | 
[V:2] [M:2/4]z4 | 
[V:1] G,3A, | 
[V:2] z4 | 
[V:1] B,3G, ||  
[V:2] z4 ||  
[V:1] [M:3/4]B,4CC ||  
[V:2] [M:3/4]z6 ||  
[V:1] [M:2/4]C3B, | 
[V:2] [M:2/4]z4 | 
[V:1] C4 ||  
[V:2] z4 ||  
[V:1] [M:3/4]CB, G,F,G,2 | 
[V:2] [M:3/4]z6 | 
[V:1] G,6 |]  
[V:2] z6 |]  



